Catalina-dark/status/24/battery-missing.svg

<?xml version="1.0" encoding="UTF-8" standalone="no"?>
<!-- Created with Inkscape (http://www.inkscape.org/) -->

<svg
   xmlns:dc="http://purl.org/dc/elements/1.1/"
   xmlns:cc="http://creativecommons.org/ns#"
   xmlns:rdf="http://www.w3.org/1999/02/22-rdf-syntax-ns#"
   xmlns:svg="http://www.w3.org/2000/svg"
   xmlns="http://www.w3.org/2000/svg"
   xmlns:xlink="http://www.w3.org/1999/xlink"
   xmlns:sodipodi="http://sodipodi.sourceforge.net/DTD/sodipodi-0.dtd"
   xmlns:inkscape="http://www.inkscape.org/namespaces/inkscape"
   id="svg7384"
   style="enable-background:new"
   height="24"
   width="24"
   version="1.1"
   inkscape:version="0.92.4 5da689c313, 2019-01-14"
   sodipodi:docname="battery-missing.svg">
  <sodipodi:namedview
     pagecolor="#a1a1a1"
     bordercolor="#666666"
     borderopacity="1"
     objecttolerance="10"
     gridtolerance="10"
     guidetolerance="10"
     inkscape:pageopacity="0"
     inkscape:pageshadow="2"
     inkscape:window-width="1920"
     inkscape:window-height="1027"
     id="namedview11"
     showgrid="true"
     inkscape:zoom="32"
     inkscape:cx="8.103378"
     inkscape:cy="15.515625"
     inkscape:window-x="0"
     inkscape:window-y="30"
     inkscape:window-maximized="1"
     inkscape:current-layer="svg7384">
    <inkscape:grid
       type="xygrid"
       id="grid843" />
  </sodipodi:namedview>
  <metadata
     id="metadata90">
    <rdf:RDF>
      <cc:Work
         rdf:about="">
        <dc:format>image/svg+xml</dc:format>
        <dc:type
           rdf:resource="http://purl.org/dc/dcmitype/StillImage" />
        <dc:title>Paper Symbolic Icon Theme</dc:title>
      </cc:Work>
    </rdf:RDF>
  </metadata>
  <title
     id="title8473">Paper Symbolic Icon Theme</title>
  <defs
     id="defs7386">
    <filter
       id="filter7554"
       style="color-interpolation-filters:sRGB">
      <feBlend
         id="feBlend7556"
         in2="BackgroundImage"
         mode="darken" />
    </filter>
    <filter
       style="color-interpolation-filters:sRGB"
       id="filter7554-5">
      <feBlend
         mode="darken"
         in2="BackgroundImage"
         id="feBlend7556-4" />
    </filter>
    <filter
       id="filter7554-6"
       style="color-interpolation-filters:sRGB">
      <feBlend
         mode="darken"
         in2="BackgroundImage"
         id="feBlend7556-6" />
    </filter>
    <linearGradient
       x1="8.9254236"
       y1="5.9997859"
       x2="8.9254236"
       y2="19"
       id="linearGradient2868"
       xlink:href="#linearGradient3678"
       gradientUnits="userSpaceOnUse"
       gradientTransform="translate(-1,-2)" />
    <linearGradient
       id="linearGradient3678">
      <stop
         id="stop3680"
         style="stop-color:#ffffff;stop-opacity:1"
         offset="0" />
      <stop
         id="stop3682"
         style="stop-color:#e6e6e6;stop-opacity:1"
         offset="1" />
    </linearGradient>
    <linearGradient
       x1="9"
       y1="3"
       x2="9"
       y2="21"
       id="linearGradient2393"
       xlink:href="#linearGradient3678"
       gradientUnits="userSpaceOnUse"
       gradientTransform="translate(-2,-1)" />
    <linearGradient
       gradientTransform="translate(-1.0001235,-5)"
       gradientUnits="userSpaceOnUse"
       xlink:href="#linearGradient3587-6-5-3"
       id="linearGradient2398"
       y2="21"
       x2="14"
       y1="3"
       x1="14" />
    <linearGradient
       id="linearGradient3587-6-5-3">
      <stop
         offset="0"
         style="stop-color:#000000;stop-opacity:1"
         id="stop3589-9-2-0" />
      <stop
         offset="1"
         style="stop-color:#363636;stop-opacity:1"
         id="stop3591-7-4-7" />
    </linearGradient>
    <linearGradient
       gradientTransform="translate(-52.096803,-11.363826)"
       gradientUnits="userSpaceOnUse"
       xlink:href="#linearGradient3587-6-5-3"
       id="linearGradient2395"
       y2="27.363825"
       x2="66.09668"
       y1="9.3638258"
       x1="66.09668" />
    <linearGradient
       gradientUnits="userSpaceOnUse"
       xlink:href="#linearGradient3587-6-5-3"
       id="linearGradient7390"
       y2="13.496136"
       x2="4.9554448"
       y1="2.6841583"
       x1="4.9554448" />
    <linearGradient
       gradientUnits="userSpaceOnUse"
       xlink:href="#linearGradient3587-6-5-3"
       id="linearGradient7392"
       y2="11.649005"
       x2="7.9109159"
       y1="4.5762329"
       x1="7.9109159" />
    <linearGradient
       gradientUnits="userSpaceOnUse"
       xlink:href="#linearGradient3587-6-5-3"
       id="linearGradient7394"
       y2="13.317288"
       x2="10.186814"
       y1="2.7742527"
       x1="10.186814" />
    <linearGradient
       gradientUnits="userSpaceOnUse"
       xlink:href="#linearGradient3587-6-5-3"
       id="linearGradient7396"
       y2="15.183488"
       x2="13.917011"
       y1="0.88217813"
       x1="13.917011" />
    <linearGradient
       id="linearGradient5263">
      <stop
         offset="0"
         style="stop-color:#a0d5ff;stop-opacity:1"
         id="stop5265" />
      <stop
         offset="1"
         style="stop-color:#a0d5ff;stop-opacity:1"
         id="stop5267" />
    </linearGradient>
    <filter
       style="color-interpolation-filters:sRGB"
       id="filter7554-4">
      <feBlend
         mode="darken"
         in2="BackgroundImage"
         id="feBlend7556-8" />
    </filter>
    <filter
       id="filter7554-5-5"
       style="color-interpolation-filters:sRGB">
      <feBlend
         id="feBlend7556-4-7"
         in2="BackgroundImage"
         mode="darken" />
    </filter>
    <filter
       id="filter7554-6-5"
       color-interpolation-filters="sRGB">
      <feBlend
         id="feBlend7556-6-7"
         in2="BackgroundImage"
         mode="darken" />
    </filter>
    <filter
       style="color-interpolation-filters:sRGB"
       id="filter7554-69">
      <feBlend
         mode="darken"
         in2="BackgroundImage"
         id="feBlend7556-61" />
    </filter>
    <filter
       id="filter7554-6-9"
       style="color-interpolation-filters:sRGB">
      <feBlend
         id="feBlend7556-3"
         in2="BackgroundImage"
         mode="darken" />
    </filter>
  </defs>
  <path
     style="clip-rule:evenodd;fill:#202020;fill-opacity:1;fill-rule:evenodd;stroke-width:1.16666663;stroke-linejoin:round;stroke-miterlimit:1.41420996"
     d="M 2 6 C 0 6 0 6 0 8 L 0 16 C 0 18 0 18 2 18 L 18.998047 18 C 20.998047 18 20.998047 18 20.998047 16 L 20.998047 8 C 20.998047 6 20.998047 6 18.998047 6 L 2 6 z M 2 7 L 18.998047 7 C 19.998047 7 19.998047 7 19.998047 8 L 19.998047 16 C 19.998047 17 19.998047 17 18.998047 17 L 2 17 C 1 17 1 17 1 16 L 1 8 C 1 7 1 7 2 7 z M 2 8 L 2 16 L 19 16 L 19 8 L 2 8 z M 10.238281 9.0722656 C 11.18369 9.0722656 11.806641 9.5849294 11.806641 10.417969 C 11.806641 11.520273 10.329703 11.966496 10.476562 13.144531 L 9.8164062 13.144531 C 9.6144743 11.831863 11.072266 11.350925 11.072266 10.458984 C 11.072266 10.013014 10.771032 9.6445312 10.183594 9.6445312 C 9.7797298 9.6445312 9.4114936 9.827936 9.1269531 10.130859 L 8.6953125 9.7695312 C 9.080819 9.3656334 9.5865917 9.0722656 10.238281 9.0722656 z M 22 10 L 22 14 C 24 14 24 10 22 10 z M 10.164062 13.851562 C 10.46696 13.851562 10.714844 14.068919 10.714844 14.388672 C 10.714844 14.691595 10.46696 14.912109 10.164062 14.912109 C 9.8611645 14.912109 9.6230469 14.691595 9.6230469 14.388672 C 9.6230469 14.068919 9.8611645 13.851562 10.164062 13.851562 z "
     id="path2-7" />
</svg>

<svg width="24" height="24" enable-background="new" version="1.1" xmlns="http://www.w3.org/2000/svg">
<path d="m2 6c-2 0-2 0-2 2v8c0 2 0 2 2 2h16.998c2 0 2 0 2-2v-8c0-2 0-2-2-2h-16.998zm0 1h16.998c1 0 1 0 1 1v8c0 1 0 1-1 1h-16.998c-1 0-1 0-1-1v-8c0-1 0-1 1-1zm0 1v8h17v-8h-17zm8.2383 1.0723c0.94541 0 1.5684 0.51266 1.5684 1.3457 0 1.1023-1.4769 1.5485-1.3301 2.7266h-0.66016c-0.20193-1.3127 1.2559-1.7936 1.2559-2.6855 0-0.44597-0.30123-0.81445-0.88867-0.81445-0.40386 0-0.7721 0.1834-1.0566 0.48633l-0.43164-0.36133c0.38551-0.4039 0.89128-0.69727 1.543-0.69727zm11.762 0.92773v4c2 0 2-4 0-4zm-11.836 3.8516c0.3029 0 0.55078 0.21736 0.55078 0.53711 0 0.30292-0.24788 0.52344-0.55078 0.52344-0.3029 0-0.54102-0.22051-0.54102-0.52344 0-0.31975 0.23812-0.53711 0.54102-0.53711z" clip-rule="evenodd" fill="#202020" fill-rule="evenodd" stroke-linejoin="round" stroke-miterlimit="1.4142" stroke-width="1.1667"/>
</svg>
